X: 281
T: Oil of Barley
N: O'Farrell's Pocket Companion v.3 (Sky ed. p.128)
N: "Irish"
M: 6/4
L: 1/4
R: blank
Q: 160
K: Am
A/G/ |\
EAA  c2d | cAG G2G | EAA A>Bc/d/ | e2d c2c/d/ | 
e>fe dcA | cAG G2G | EAA dcA | A3 A2 :| 
A/B/ |\
c>de/f/ g2a | ged d2d | e>fe eag | e2d c2c/d/ | 
eea d2e | cd/c/B/A/ G2G | EAA dcA | A3 A2 :| 
